site/static/images/icons/star.svg

<svg fill="none" height="32" viewBox="0 0 32 32" width="32" xmlns="http://www.w3.org/2000/svg" xmlns:xlink="http://www.w3.org/1999/xlink"><clipPath id="a"><path d="m0 0h32v32h-32z"/></clipPath><g clip-path="url(#a)" clip-rule="evenodd" fill="#ff659d" fill-rule="evenodd"><path d="m16 3c-7.1797 0-13 5.8203-13 13 0 7.1798 5.8203 13 13 13 7.1798 0 13-5.8202 13-13 0-7.1797-5.8202-13-13-13zm-16 13c0-8.83656 7.16344-16 16-16 8.8366 0 16 7.16344 16 16 0 8.8366-7.1634 16-16 16-8.83656 0-16-7.1634-16-16z"/><path d="m16.0012 7c.17-.00011.3368.0474.4813.13714.1445.08975.261.21815.3363.37068l2.2864 4.63478 5.1146.7435c.1682.0244.3262.0954.4562.205.13.1095.2267.2532.2793.4149.0526.1616.0589.3347.0182.4998-.0406.165-.1267.3154-.2483.4341l-3.7005 3.6082.8735 5.0928c.0288.1675.0101.3398-.0539.4973-.064.1576-.1708.294-.3083.394s-.3003.1595-.4699.1718-.3392-.0231-.4897-.1022l-4.5752-2.4054-4.5753 2.4054c-.1504.079-.3199.1144-.4893.1021-.1695-.0123-.3321-.0717-.4696-.1715s-.2443-.2361-.3084-.3934-.083-.3294-.0545-.4969l.8747-5.0952-3.7029-3.607c-.12202-.1187-.20835-.2691-.24923-.4343-.04088-.1653-.03466-.3386.01795-.5005.0526-.1619.1495-.3058.2797-.4154s.2885-.1806.45697-.2048l5.11461-.7423 2.2876-4.63478c.0753-.15253.1918-.28093.3363-.37068.1445-.08974.3113-.13725.4814-.13714zm0 2.97038-1.6827 3.40772c-.0653.1323-.1618.2468-.2811.3335-.1194.0868-.258.1433-.404.1646l-3.76252.5467 2.72132 2.6533c.1059.1031.1851.2304.2308.3709.0457.1406.0566.2901.0316.4358l-.6414 3.7467 3.364-1.7689c.1307-.0687.2762-.1047.424-.1047.1477 0 .2932.036.4239.1047l3.3653 1.7689-.6439-3.7467c-.025-.1457-.0141-.2952.0316-.4358.0457-.1405.1249-.2678.2308-.3709l2.7213-2.6521-3.7613-.5467c-.146-.0213-.2846-.0778-.404-.1646-.1193-.0867-.2158-.2012-.2811-.3335l-1.6826-3.41014z"/></g></svg>

<svg width="32" height="32" viewBox="0 0 32 32" fill="none" xmlns="http://www.w3.org/2000/svg">
<g clip-path="url(#clip0_1205_609)">
<path fill-rule="evenodd" clip-rule="evenodd" d="M16 3C8.8203 3 3 8.8203 3 16C3 23.1798 8.8203 29 16 29C23.1798 29 29 23.1798 29 16C29 8.8203 23.1798 3 16 3ZM0 16C0 7.16344 7.16344 0 16 0C24.8366 0 32 7.16344 32 16C32 24.8366 24.8366 32 16 32C7.16344 32 0 24.8366 0 16Z" fill="#FF659D"/>
<path fill-rule="evenodd" clip-rule="evenodd" d="M16.0012 7C16.1712 6.99989 16.338 7.0474 16.4825 7.13714C16.627 7.22689 16.7435 7.35529 16.8188 7.50782L19.1052 12.1426L24.2198 12.8861C24.388 12.9105 24.546 12.9815 24.676 13.0911C24.806 13.2006 24.9027 13.3443 24.9553 13.506C25.0079 13.6676 25.0142 13.8407 24.9735 14.0058C24.9329 14.1708 24.8468 14.3212 24.7252 14.4399L21.0247 18.0481L21.8982 23.1409C21.927 23.3084 21.9083 23.4807 21.8443 23.6382C21.7803 23.7958 21.6735 23.9322 21.536 24.0322C21.3985 24.1322 21.2357 24.1917 21.0661 24.204C20.8965 24.2163 20.7269 24.1809 20.5764 24.1018L16.0012 21.6964L11.4259 24.1018C11.2755 24.1808 11.106 24.2162 10.9366 24.2039C10.7671 24.1916 10.6045 24.1322 10.467 24.0324C10.3295 23.9326 10.2227 23.7963 10.1586 23.639C10.0945 23.4817 10.0756 23.3096 10.1041 23.1421L10.9788 18.0469L7.2759 14.4399C7.15388 14.3212 7.06755 14.1708 7.02667 14.0056C6.98579 13.8403 6.99201 13.667 7.04462 13.5051C7.09722 13.3432 7.19412 13.1993 7.32432 13.0897C7.45452 12.9801 7.61282 12.9091 7.78129 12.8849L12.8959 12.1426L15.1835 7.50782C15.2588 7.35529 15.3753 7.22689 15.5198 7.13714C15.6643 7.0474 15.8311 6.99989 16.0012 7V7ZM16.0012 9.97038L14.3185 13.3781C14.2532 13.5104 14.1567 13.6249 14.0374 13.7116C13.918 13.7984 13.7794 13.8549 13.6334 13.8762L9.87088 14.4229L12.5922 17.0762C12.6981 17.1793 12.7773 17.3066 12.823 17.4471C12.8687 17.5877 12.8796 17.7372 12.8546 17.8829L12.2132 21.6296L15.5772 19.8607C15.7079 19.792 15.8534 19.756 16.0012 19.756C16.1489 19.756 16.2944 19.792 16.4251 19.8607L19.7904 21.6296L19.1465 17.8829C19.1215 17.7372 19.1324 17.5877 19.1781 17.4471C19.2238 17.3066 19.303 17.1793 19.4089 17.0762L22.1302 14.4241L18.3689 13.8774C18.2229 13.8561 18.0843 13.7996 17.9649 13.7128C17.8456 13.6261 17.7491 13.5116 17.6838 13.3793L16.0012 9.96916V9.97038Z" fill="#FF659D"/>
</g>
<defs>
<clipPath id="clip0_1205_609">
<rect width="32" height="32" fill="white"/>
</clipPath>
</defs>
</svg>
